X: 27117
T: Miss Marion MacDonald's
R: reel
M: 4/4
K: Fmajor
F|{D}F2(FA) cf(af)|gfga gfde|fdcA cfaf|gfga g/g/g gf|
{D}F2(FA) cfaf|gfga gfde|fdcA cfaf|gfga f/f/f f||
b|afcf dfcf|AFCF A,CFA|afcf dfcf|Acfa g/g/g gf|
afcf dfcf|AFCF A,CFA|afcf dfcf|dbeg f/f/f f||

